X:1
T:notre pere notre pere nous te supplions humblement 
L:1/8
Q:1/4=100
M:3/4
K:D
V:1 treble nm="Piano" snm="Pno"
V:1
"^v1" z4 dc |"G" B2 B2 dB |"D" A2 A2 BA |"G" FE D2 EF |"D" D4 x2 |][K:Eb]"^v2" z4 B=A | %6
w: no tre|pe re no tre|pe re nous te|sup pli ons hum ble|ment|no tre|
"Gm" G2 G2 BG |"Bb" F2 F2 GF |"Dm" DC"Gm" B,2"F" CD |"Bb" B,4 x2 |] %10
w: pe re no tre|pe re nous te|sup pli ons hum ble|ment|

